X:1
T:I Know Not
T:I Know Not
T:John Franklin Kinsey, 1892
T:John McPherson, 1881
T:Public Domain Courtesy of the Cyber Hymnal™
T:Public Domain Courtesy of the Cyber Hymnal™
C:John Franklin Kinsey, 1892
Z:Public Domain
Z:Courtesy of the Cyber Hymnal™
%%score ( 1 2 ) 3
L:1/8
Q:1/4=95
M:4/4
K:Eb
V:1 treble 
V:2 treble 
V:3 bass 
V:1
 ([EG][FA]) | [GB]2 [^F=A][GB] [EG]2 [=F_A][GB] | [Ac] [Ac]3 z2 [Ac]2 | %3
w: 1.~I *|know not how soon God will|call me, To|
w: 2.~To- *|night the death an- gel may|whis- per The|
w: 3.~I *|know not how soon I’ll be|sing- ing Sweet|
 [ce]2 [Bd][Ac] [GB]2 [EG][EG] | [DF]6 ([EG][FA]) | [GB]2 [^F=A][GB] [EG]2 [=F_A][GB] | %6
w: leave all these scenes here be-|low; Here *|tri- als and trou- bles be-|
w: sum- mons for me to come|home; And *|leave here a bro- ther or|
w: songs with the ran- somed up|there; For *|ev- er the an- thems are|
 [Ac] [Ac]3 z2 [Ac]2 | [GB]2 [Ac][GB] [EG]2 [DF][DF] | E6 ||"^Refrain" E2 | %10
w: fall me, I|care not how soon I may|go.||
w: sis- ter, My|sud- den de- part- ure to|mourn.|I’m|
w: ring- ing, O’er|Heav- en’s dear land- scape so|fair.||
 [DF]2 [DF][EG] [FA]2 [EG][GB] | [Ac] [GB]3 z2 [GB]2 | [FB]2 [FB][FA] [EG]2 [EG][EG] | %13
w: |||
w: glad that I know not the|com- ing Of|Je- sus, my Mas- ter, my|
w: |||
 [DF]6 ([EG][FA]) | [GB]2 [^F=A][GB] [EG]2 [=F_A][GB] | [Ac] [Ac]3 z2 [Ac]2 | %16
w: |||
w: joy; But *|soon He will take me from|roam- ing, To|
w: |||
 [GB]2 [Ac][GB] [EG]2 [DF][DF] | E6 |] %18
w: ||
w: rest where no fears can an-|noy.|
w: ||
V:2
 x2 | x8 | x8 | x8 | x8 | x8 | x8 | x8 | E6 || E2 | x8 | x8 | x8 | x8 | x8 | x8 | x8 | E6 |] %18
V:3
 z2 | (E,B,)G,B, E,B,G,B, | A, (ECEA,E) (CE) | (A,E)CE (E,B,)G,B, | (B,,B,=A,B,B,_A,) (G,F,) | %5
 (E,B,)G,B, (E,B,)G,B, | A, (ECEA,E) (CE) | (E,B,)G,B, (B,,B,)A,A, | [E,G,]6 || [E,G,]2 | %10
 [B,,B,]2 [B,,B,][B,,B,] [B,,B,]2 [B,,B,][B,,E] | [E,E] [E,E]3 z2 [E,E]2 | %12
 [D,B,]2 [D,B,][D,B,] [E,B,]2 [E,B,][B,,B,] | [B,,B,]6 [E,B,]2 | %14
 [E,E]2 [E,E][E,E] [E,B,]2 [E,E][E,E] | [A,,E] [A,,E]3 z2 [A,,E]2 | %16
 [B,,E]2 [B,,E][B,,E] [B,,B,]2 [B,,A,][B,,A,] | [E,G,]6 |] %18

